X: 36839
T: Shipley, The
R: hornpipe
M: 4/4
K: Dmajor
(3ABc|d2Af edce|d2Af e2fg|aAgA fAeA|dFAd c2BA|
dBGe cAfd|Bgec a2fg|afbg eafd|gecA d2:|
|:fg|a2fd gecf|dBec A3G|FAde fdBg|ecaf e2fg|
aAFa gGEg|fFDf e2fg|aAFa bagf|efgc d2:|

